svg/blobs-icons/no-decorations/balloon.svg

<svg xmlns="http://www.w3.org/2000/svg" xmlns:xlink="http://www.w3.org/1999/xlink" preserveAspectRatio="xMidYMid" width="140" height="214" viewBox="0 0 140 214"><defs><style>.cls-3{fill:#142a3b}.cls-4{fill:#0cb04a}.cls-5{fill:#010101;opacity:.35}.cls-7{fill:#fff}</style></defs><g id="group-155svg"><path d="M48.552 213.275C48.236 213.275 47.932 213.268 47.637 213.254 45.643 213.155 44.106 211.462 44.202 209.466 44.301 207.478 45.973 206.01 47.976 206.032 49.621 206.1 63.861 206.119 66.364 188.909 66.65 186.932 68.486 185.567 70.461 185.852 72.436 186.138 73.806 187.975 73.518 189.949 70.817 208.51 56.511 213.275 48.552 213.275z" id="path-1" class="cls-3" fill-rule="evenodd"/><path d="M61.623 190.393s8.317.0 8.317.0S75.623 190.393 75.623 190.393s0-25 0-25S69.785 165.393 69.785 165.393s-8.162.0-8.162.0.0 25 0 25z" id="path-2" class="cls-4" fill-rule="evenodd"/><path d="M68.026 167.014S61.633 167.014 61.633 167.014 61.633 170.968 61.633 170.968 68.182 174.923 68.182 174.923s0 15.82.0 15.82S76.091 190.743 76.091 190.743s0-23.729.0-23.729-8.065.0-8.065.0z" id="path-3" class="cls-5" fill-rule="evenodd"/><path d="M139.578 85.303C139.578 38.19 108.33.0 69.785.0 31.24.0-.007 38.19-.007 85.303c0 47.112 31.247 85.304 69.792 85.304s69.793-38.192 69.793-85.304z" id="path-4" class="cls-4" fill-rule="evenodd"/><path d="M16.001 79.948C13.006 79.948 10.58 77.521 10.58 74.527c0-33.783 22.927-61.265 51.108-61.265C64.683 13.262 67.109 15.69 67.109 18.685S64.683 24.107 61.688 24.107c-22.203.0-40.265 22.617-40.265 50.42C21.423 77.521 18.996 79.948 16.001 79.948z" id="path-5" class="cls-7" fill-rule="evenodd"/><path d="M90.086 3.918c13.404 15.544 21.808 37.469 21.808 61.836.0 47.112-31.247 85.303-69.793 85.303C35.037 151.057 28.227 149.751 21.801 147.365c12.512 14.51 29.376 23.467 47.984 23.467 38.546.0 69.793-38.191 69.793-85.303.0-38.478-20.854-70.981-49.492-81.611z" id="path-6" class="cls-5" fill-rule="evenodd"/></g></svg>

<svg xmlns="http://www.w3.org/2000/svg" xmlns:xlink="http://www.w3.org/1999/xlink" preserveAspectRatio="xMidYMid" width="140" height="214" viewBox="0 0 140 214">
  <defs>
    <style>

      .cls-3 {
        fill: #142a3b;
      }

      .cls-4 {
        fill: #0cb04a;
      }

      .cls-5 {
        fill: #010101;
        opacity: 0.35;
      }

      .cls-7 {
        fill: #ffffff;
      }
    </style>
  </defs>
  <g id="group-155svg">
    <path d="M48.552,213.275 C48.236,213.275 47.932,213.268 47.637,213.254 C45.643,213.155 44.106,211.462 44.202,209.466 C44.301,207.478 45.973,206.010 47.976,206.032 C49.621,206.100 63.861,206.119 66.364,188.909 C66.650,186.932 68.486,185.567 70.461,185.852 C72.436,186.138 73.806,187.975 73.518,189.949 C70.817,208.510 56.511,213.275 48.552,213.275 Z" id="path-1" class="cls-3" fill-rule="evenodd"/>
    <path d="M61.623,190.393 C61.623,190.393 69.940,190.393 69.940,190.393 C69.940,190.393 75.623,190.393 75.623,190.393 C75.623,190.393 75.623,165.393 75.623,165.393 C75.623,165.393 69.785,165.393 69.785,165.393 C69.785,165.393 61.623,165.393 61.623,165.393 C61.623,165.393 61.623,190.393 61.623,190.393 Z" id="path-2" class="cls-4" fill-rule="evenodd"/>
    <path d="M68.026,167.014 C68.026,167.014 61.633,167.014 61.633,167.014 C61.633,167.014 61.633,170.968 61.633,170.968 C61.633,170.968 68.182,174.923 68.182,174.923 C68.182,174.923 68.182,190.743 68.182,190.743 C68.182,190.743 76.091,190.743 76.091,190.743 C76.091,190.743 76.091,167.014 76.091,167.014 C76.091,167.014 68.026,167.014 68.026,167.014 Z" id="path-3" class="cls-5" fill-rule="evenodd"/>
    <path d="M139.578,85.303 C139.578,38.190 108.330,0.000 69.785,0.000 C31.240,0.000 -0.007,38.190 -0.007,85.303 C-0.007,132.415 31.240,170.607 69.785,170.607 C108.330,170.607 139.578,132.415 139.578,85.303 Z" id="path-4" class="cls-4" fill-rule="evenodd"/>
    <path d="M16.001,79.948 C13.006,79.948 10.580,77.521 10.580,74.527 C10.580,40.744 33.507,13.262 61.688,13.262 C64.683,13.262 67.109,15.690 67.109,18.685 C67.109,21.680 64.683,24.107 61.688,24.107 C39.485,24.107 21.423,46.724 21.423,74.527 C21.423,77.521 18.996,79.948 16.001,79.948 Z" id="path-5" class="cls-7" fill-rule="evenodd"/>
    <path d="M90.086,3.918 C103.490,19.462 111.894,41.387 111.894,65.754 C111.894,112.866 80.647,151.057 42.101,151.057 C35.037,151.057 28.227,149.751 21.801,147.365 C34.313,161.875 51.177,170.832 69.785,170.832 C108.331,170.832 139.578,132.641 139.578,85.529 C139.578,47.051 118.724,14.548 90.086,3.918 Z" id="path-6" class="cls-5" fill-rule="evenodd"/>
  </g>
</svg>
